austria/municipalities/70819.svg

<?xml version="1.0" encoding="UTF-8"?>
<!DOCTYPE svg PUBLIC "-//W3C//DTD SVG 1.1//EN" "http://www.w3.org/Graphics/SVG/1.1/DTD/svg11.dtd">
<svg xmlns="http://www.w3.org/2000/svg" version="1.1" width="166px" height="192px" style="shape-rendering:geometricPrecision; text-rendering:geometricPrecision; image-rendering:optimizeQuality; fill-rule:evenodd; clip-rule:evenodd" xmlns:xlink="http://www.w3.org/1999/xlink">
<g><path style="opacity:1" fill="#040302" d="M -0.5,-0.5 C 54.8333,-0.5 110.167,-0.5 165.5,-0.5C 165.5,39.8333 165.5,80.1667 165.5,120.5C 156.489,160.511 131.823,184.178 91.5,191.5C 84.8333,191.5 78.1667,191.5 71.5,191.5C 30.4543,182.789 6.45426,157.789 -0.5,116.5C -0.5,77.5 -0.5,38.5 -0.5,-0.5 Z"/></g>
<g><path style="opacity:1" fill="#e6a51c" d="M 82.5,18.5 C 53.0094,18.6443 34.8427,32.9777 28,61.5C 21.9558,57.7017 18.7891,59.3683 18.5,66.5C 17.5,66.5 16.5,66.5 15.5,66.5C 15.0775,70.7121 15.7442,74.7121 17.5,78.5C 13.9724,83.6816 15.3057,86.8483 21.5,88C 27.199,92.9031 29.3657,99.0698 28,106.5C 16.4742,138.946 26.9742,160.446 59.5,171C 64.3751,172.636 69.3751,173.469 74.5,173.5C 76.9479,174.473 79.6146,174.806 82.5,174.5C 82.5,178.833 82.5,183.167 82.5,187.5C 43.3839,185.522 17.8839,165.855 6,128.5C 5.08815,124.205 4.42148,119.872 4,115.5C 3.50001,78.1682 3.33335,40.8348 3.5,3.5C 29.8333,3.5 56.1667,3.5 82.5,3.5C 82.5,8.5 82.5,13.5 82.5,18.5 Z"/></g>
<g><path style="opacity:1" fill="#e3a21c" d="M 82.5,18.5 C 101.808,18.0879 117.308,25.4212 129,40.5C 133.195,46.9184 135.695,53.9184 136.5,61.5C 136.205,63.7354 136.539,65.7354 137.5,67.5C 138.482,70.9619 138.815,74.6286 138.5,78.5C 137.652,79.625 136.652,79.625 135.5,78.5C 134.531,77.6906 133.698,76.6906 133,75.5C 131.424,54.1379 121.257,38.6379 102.5,29C 96.1097,26.2355 89.4431,25.0689 82.5,25.5C 82.5,23.1667 82.5,20.8333 82.5,18.5 Z"/></g>
<g><path style="opacity:1" fill="#e7a51c" d="M 82.5,25.5 C 82.5,43.1667 82.5,60.8333 82.5,78.5C 65.1635,78.6666 47.8301,78.4999 30.5,78C 31.7014,77.0975 32.5348,75.9308 33,74.5C 36.1401,44.5259 52.6401,28.1926 82.5,25.5 Z"/></g>
<g><path style="opacity:1" fill="#020100" d="M 82.5,25.5 C 89.4431,25.0689 96.1097,26.2355 102.5,29C 121.257,38.6379 131.424,54.1379 133,75.5C 133.698,76.6906 134.531,77.6906 135.5,78.5C 117.833,78.5 100.167,78.5 82.5,78.5C 82.5,60.8333 82.5,43.1667 82.5,25.5 Z"/></g>
<g><path style="opacity:1" fill="#be8822" d="M 143.5,60.5 C 141.486,60.3915 139.82,61.0582 138.5,62.5C 137.833,62.5 137.5,62.1667 137.5,61.5C 139.362,59.5252 141.362,59.1919 143.5,60.5 Z"/></g>
<g><path style="opacity:1" fill="#050402" d="M 143.5,60.5 C 144.939,62.588 145.606,64.9214 145.5,67.5C 145.5,71.1667 145.5,74.8333 145.5,78.5C 143.167,78.5 140.833,78.5 138.5,78.5C 138.815,74.6286 138.482,70.9619 137.5,67.5C 137.629,65.7839 137.962,64.1172 138.5,62.5C 139.82,61.0582 141.486,60.3915 143.5,60.5 Z"/></g>
<g><path style="opacity:1" fill="#674d20" d="M 136.5,61.5 C 136.833,61.5 137.167,61.5 137.5,61.5C 137.5,62.1667 137.833,62.5 138.5,62.5C 137.962,64.1172 137.629,65.7839 137.5,67.5C 136.539,65.7354 136.205,63.7354 136.5,61.5 Z"/></g>
<g><path style="opacity:1" fill="#7a5b22" d="M 143.5,60.5 C 145.969,61.6067 146.969,63.6067 146.5,66.5C 147.791,66.2627 148.791,66.596 149.5,67.5C 148.167,67.5 146.833,67.5 145.5,67.5C 145.606,64.9214 144.939,62.588 143.5,60.5 Z"/></g>
<g><path style="opacity:1" fill="#e5a41c" d="M 145.5,67.5 C 146.833,67.5 148.167,67.5 149.5,67.5C 149.968,71.9362 148.968,75.9362 146.5,79.5C 145.833,79.5 145.5,79.1667 145.5,78.5C 145.5,74.8333 145.5,71.1667 145.5,67.5 Z"/></g>
<g><path style="opacity:1" fill="#4d3b1b" d="M 82.5,78.5 C 100.167,78.5 117.833,78.5 135.5,78.5C 136.652,79.625 137.652,79.625 138.5,78.5C 140.833,78.5 143.167,78.5 145.5,78.5C 145.5,79.1667 145.833,79.5 146.5,79.5C 146.5,79.8333 146.5,80.1667 146.5,80.5C 125.167,80.5 103.833,80.5 82.5,80.5C 61.5,80.5 40.5,80.5 19.5,80.5C 40.5,79.8333 61.5,79.1667 82.5,78.5 Z"/></g>
<g><path style="opacity:1" fill="#e7a51c" d="M 19.5,80.5 C 40.5,80.5 61.5,80.5 82.5,80.5C 82.5,82.5 82.5,84.5 82.5,86.5C 61.8306,86.6666 41.164,86.5 20.5,86C 17.1378,84.4303 16.8045,82.597 19.5,80.5 Z"/></g>
<g><path style="opacity:1" fill="#000000" d="M 82.5,80.5 C 103.833,80.5 125.167,80.5 146.5,80.5C 148.104,81.287 148.771,82.6203 148.5,84.5C 147.527,84.9867 146.527,85.4867 145.5,86C 124.503,86.5 103.503,86.6666 82.5,86.5C 82.5,84.5 82.5,82.5 82.5,80.5 Z"/></g>
<g><path style="opacity:1" fill="#bd8922" d="M 146.5,80.5 C 146.5,80.1667 146.5,79.8333 146.5,79.5C 147.496,79.4142 148.329,79.7476 149,80.5C 149.765,82.0657 149.598,83.3991 148.5,84.5C 148.771,82.6203 148.104,81.287 146.5,80.5 Z"/></g>
<g><path style="opacity:1" fill="#020100" d="M 82.5,18.5 C 82.5,20.8333 82.5,23.1667 82.5,25.5C 52.6401,28.1926 36.1401,44.5259 33,74.5C 32.5348,75.9308 31.7014,77.0975 30.5,78C 47.8301,78.4999 65.1635,78.6666 82.5,78.5C 61.5,79.1667 40.5,79.8333 19.5,80.5C 16.8045,82.597 17.1378,84.4303 20.5,86C 41.164,86.5 61.8306,86.6666 82.5,86.5C 82.5,115.5 82.5,144.5 82.5,173.5C 79.8333,173.5 77.1667,173.5 74.5,173.5C 69.3751,173.469 64.3751,172.636 59.5,171C 26.9742,160.446 16.4742,138.946 28,106.5C 29.3657,99.0698 27.199,92.9031 21.5,88C 15.3057,86.8483 13.9724,83.6816 17.5,78.5C 15.7442,74.7121 15.0775,70.7121 15.5,66.5C 16.5,66.5 17.5,66.5 18.5,66.5C 18.7891,59.3683 21.9558,57.7017 28,61.5C 34.8427,32.9777 53.0094,18.6443 82.5,18.5 Z"/></g>
<g><path style="opacity:1" fill="#e7a51c" d="M 21.5,61.5 C 23.1439,61.2865 24.6439,61.6198 26,62.5C 26.4994,67.8229 26.666,73.1563 26.5,78.5C 24.5,78.5 22.5,78.5 20.5,78.5C 20.2143,72.7414 20.5476,67.0748 21.5,61.5 Z"/></g>
<g><path style="opacity:1" fill="#e7a51c" d="M 148.5,84.5 C 148.631,85.3764 148.298,86.0431 147.5,86.5C 141.772,87.8999 138.272,91.5665 137,97.5C 136.333,101.167 136.333,104.833 137,108.5C 147.562,143.202 135.062,164.369 99.5,172C 93.8769,173.029 88.2102,173.529 82.5,173.5C 82.5,144.5 82.5,115.5 82.5,86.5C 103.503,86.6666 124.503,86.5 145.5,86C 146.527,85.4867 147.527,84.9867 148.5,84.5 Z"/></g>
<g><path style="opacity:1" fill="#fdfdfd" d="M -0.5,116.5 C 6.45426,157.789 30.4543,182.789 71.5,191.5C 47.5,191.5 23.5,191.5 -0.5,191.5C -0.5,166.5 -0.5,141.5 -0.5,116.5 Z"/></g>
<g><path style="opacity:1" fill="#fdfdfd" d="M 165.5,120.5 C 165.5,144.167 165.5,167.833 165.5,191.5C 140.833,191.5 116.167,191.5 91.5,191.5C 131.823,184.178 156.489,160.511 165.5,120.5 Z"/></g>
</svg>

<svg xmlns="http://www.w3.org/2000/svg" width="166" height="192" style="shape-rendering:geometricPrecision;text-rendering:geometricPrecision;image-rendering:optimizeQuality;fill-rule:evenodd;clip-rule:evenodd"><path style="opacity:1" fill="#040302" d="M-.5-.5h166v121c-9.011 40.011-33.677 63.678-74 71h-20c-41.046-8.711-65.046-33.711-72-75V-.5z"/><path style="opacity:1" fill="#e6a51c" d="M82.5 18.5c-29.49.144-47.657 14.478-54.5 43-6.044-3.798-9.21-2.132-9.5 5h-3c-.422 4.212.244 8.212 2 12-3.528 5.182-2.194 8.348 4 9.5 5.699 4.903 7.866 11.07 6.5 18.5-11.526 32.446-1.026 53.946 31.5 64.5a47.763 47.763 0 0 0 15 2.5c2.448.973 5.115 1.306 8 1v13c-39.116-1.978-64.616-21.645-76.5-59a116.268 116.268 0 0 1-2-13c-.5-37.332-.667-74.665-.5-112h79v15z"/><path style="opacity:1" fill="#e3a21c" d="M82.5 18.5c19.308-.412 34.808 6.921 46.5 22 4.195 6.418 6.695 13.418 7.5 21-.295 2.235.039 4.235 1 6 .982 3.462 1.315 7.129 1 11-.848 1.125-1.848 1.125-3 0-.969-.81-1.802-1.81-2.5-3-1.576-21.362-11.743-36.862-30.5-46.5-6.39-2.765-13.057-3.931-20-3.5v-7z"/><path style="opacity:1" fill="#e7a51c" d="M82.5 25.5v53c-17.337.167-34.67 0-52-.5a6.975 6.975 0 0 0 2.5-3.5c3.14-29.974 19.64-46.307 49.5-49z"/><path style="opacity:1" fill="#020100" d="M82.5 25.5c6.943-.431 13.61.735 20 3.5 18.757 9.638 28.924 25.138 30.5 46.5.698 1.19 1.531 2.19 2.5 3h-53v-53z"/><path style="opacity:1" fill="#be8822" d="M143.5 60.5c-2.014-.108-3.68.558-5 2-.667 0-1-.333-1-1 1.862-1.975 3.862-2.308 6-1z"/><path style="opacity:1" fill="#050402" d="M143.5 60.5c1.439 2.088 2.106 4.421 2 7v11h-7c.315-3.871-.018-7.538-1-11a20.691 20.691 0 0 1 1-5c1.32-1.442 2.986-2.108 5-2z"/><path style="opacity:1" fill="#674d20" d="M136.5 61.5h1c0 .667.333 1 1 1a20.691 20.691 0 0 0-1 5c-.961-1.765-1.295-3.765-1-6z"/><path style="opacity:1" fill="#7a5b22" d="M143.5 60.5c2.469 1.107 3.469 3.107 3 6 1.291-.237 2.291.096 3 1h-4c.106-2.579-.561-4.912-2-7z"/><path style="opacity:1" fill="#e5a41c" d="M145.5 67.5h4c.468 4.436-.532 8.436-3 12-.667 0-1-.333-1-1v-11z"/><path style="opacity:1" fill="#4d3b1b" d="M82.5 78.5h53c1.152 1.125 2.152 1.125 3 0h7c0 .667.333 1 1 1v1h-127l63-2z"/><path style="opacity:1" fill="#e7a51c" d="M19.5 80.5h63v6c-20.67.167-41.336 0-62-.5-3.362-1.57-3.695-3.403-1-5.5z"/><path style="opacity:1" d="M82.5 80.5h64c1.604.787 2.271 2.12 2 4l-3 1.5c-20.997.5-41.997.667-63 .5v-6z"/><path style="opacity:1" fill="#bd8922" d="M146.5 80.5v-1c.996-.086 1.829.248 2.5 1 .765 1.566.598 2.9-.5 4 .271-1.88-.396-3.213-2-4z"/><path style="opacity:1" fill="#020100" d="M82.5 18.5v7c-29.86 2.693-46.36 19.026-49.5 49a6.975 6.975 0 0 1-2.5 3.5c17.33.5 34.663.667 52 .5l-63 2c-2.695 2.097-2.362 3.93 1 5.5 20.664.5 41.33.667 62 .5v87h-8a47.763 47.763 0 0 1-15-2.5c-32.526-10.554-43.026-32.054-31.5-64.5 1.366-7.43-.801-13.597-6.5-18.5-6.194-1.152-7.528-4.318-4-9.5-1.756-3.788-2.422-7.788-2-12h3c.29-7.132 3.456-8.798 9.5-5 6.843-28.522 25.01-42.856 54.5-43z"/><path style="opacity:1" fill="#e7a51c" d="M21.5 61.5c1.644-.214 3.144.12 4.5 1 .5 5.323.666 10.656.5 16h-6a77.766 77.766 0 0 1 1-17zM148.5 84.5c.131.876-.202 1.543-1 2-5.728 1.4-9.228 5.067-10.5 11a30.485 30.485 0 0 0 0 11c10.562 34.702-1.938 55.869-37.5 63.5a91.652 91.652 0 0 1-17 1.5v-87c21.003.167 42.003 0 63-.5l3-1.5z"/><path style="opacity:1" fill="#fdfdfd" d="M-.5 116.5c6.954 41.289 30.954 66.289 72 75h-72v-75zM165.5 120.5v71h-74c40.323-7.322 64.989-30.989 74-71z"/></svg>
